img/advantages__icon--05.svg

<svg width="67" height="73" viewBox="0 0 67 73" fill="none" xmlns="http://www.w3.org/2000/svg">
<g filter="url(#filter0_d)">
<path d="M33.6027 17.9409C33.5442 17.9409 33.4865 17.9414 33.4278 17.9422C26.7088 18.0363 21.26 23.628 21.2813 30.4071C21.2875 32.3646 21.7324 34.237 22.6037 35.9722C24.6956 40.1385 25.6699 43.52 25.6699 46.6139V46.8476C25.6699 46.9393 25.6836 47.0277 25.7086 47.1112C25.7087 47.1114 25.7086 47.1117 25.7087 47.112L25.7092 47.1136C25.7101 47.1166 25.7109 47.1195 25.7119 47.1225L26.9565 51.2644C27.072 51.649 27.4234 51.9118 27.8218 51.9118H28.9781L29.9031 55.0357C30.0175 55.422 30.3698 55.6867 30.7696 55.6867H36.4362C36.836 55.6867 37.1883 55.422 37.3027 55.0357L38.2277 51.9118H39.384C39.7824 51.9118 40.1339 51.6489 40.2494 51.2644L41.494 47.1223C41.4949 47.1195 41.4957 47.1168 41.4965 47.1141L41.4971 47.1121C41.4972 47.1118 41.4972 47.1114 41.4973 47.111C41.5223 47.0276 41.536 46.9392 41.536 46.8476V46.5617C41.536 42.8536 43.0531 39.1924 44.6926 35.7881C45.51 34.0906 45.9245 32.2666 45.9245 30.3666C45.9243 23.5152 40.3969 17.9409 33.6027 17.9409ZM35.7624 53.8629H31.443L30.8653 51.9118H36.3402L35.7624 53.8629ZM38.713 50.0882H28.4925L27.7929 47.7596H39.4127L38.713 50.0882ZM30.6113 38.1245L29.8828 32.9319L30.7313 33.7196C30.9087 33.8843 31.1446 33.9705 31.3848 33.9597C31.6257 33.9486 31.8522 33.8409 32.014 33.6607L33.6025 31.8909L35.1912 33.6607C35.3531 33.841 35.5796 33.9485 35.8204 33.9597C35.8341 33.9602 35.8478 33.9606 35.8616 33.9606C36.0879 33.9606 36.3067 33.875 36.4739 33.7196L37.323 32.9315L36.5943 38.1245H30.6113ZM36.5365 39.9482V45.9358H30.6689V39.9482H36.5365ZM43.0656 34.9915C41.4208 38.4068 39.8923 42.0865 39.7397 45.9358H38.345L38.3181 38.8191L39.468 30.6599C39.538 30.1612 39.1939 29.6998 38.6994 29.6292C38.42 29.5891 38.1525 29.6827 37.96 29.8615L35.9199 31.7551L34.2727 29.9201C34.1012 29.7292 33.8577 29.6202 33.6023 29.6202C33.3468 29.6202 33.1034 29.7292 32.9319 29.9201L31.2851 31.755L29.2451 29.8612C28.8777 29.5202 28.3057 29.544 27.9674 29.9145C27.7764 30.1237 27.701 30.3988 27.7375 30.6599H27.7374L28.8873 38.8191L28.8604 45.9358H27.4644C27.3354 42.7363 26.2942 39.2856 24.217 35.1484C23.4742 33.669 23.0949 32.0718 23.0897 30.4014C23.0715 24.6173 27.7204 19.8462 33.4529 19.7658C39.3198 19.6855 44.1157 24.4704 44.1157 30.3668C44.1158 31.9885 43.7625 33.5445 43.0656 34.9915Z" fill="url(#paint0_linear)"/>
<path d="M18.7223 30.2804C18.7223 29.7768 18.3175 29.3685 17.8181 29.3685H14.6572C14.1578 29.3685 13.7529 29.7768 13.7529 30.2804C13.7529 30.784 14.1578 31.1923 14.6572 31.1923H17.818C18.3175 31.1923 18.7223 30.784 18.7223 30.2804Z" fill="url(#paint1_linear)"/>
<path d="M52.5465 29.3685H49.3857C48.8863 29.3685 48.4814 29.7768 48.4814 30.2804C48.4814 30.784 48.8863 31.1923 49.3857 31.1923H52.5465C53.0459 31.1923 53.4507 30.784 53.4507 30.2804C53.4507 29.7768 53.046 29.3685 52.5465 29.3685Z" fill="url(#paint2_linear)"/>
<path d="M16.7432 21.5171L19.4806 23.1109C19.623 23.1939 19.7784 23.2332 19.9319 23.2332C20.2444 23.2332 20.5483 23.0697 20.7158 22.7772C20.9655 22.3411 20.8173 21.7834 20.3849 21.5315L17.6475 19.9377C17.2149 19.6858 16.662 19.8353 16.4123 20.2714C16.1626 20.7075 16.3108 21.2653 16.7432 21.5171Z" fill="url(#paint3_linear)"/>
<path d="M50.4611 39.0434L47.7236 37.4496C47.2911 37.1978 46.7382 37.3472 46.4885 37.7833C46.2388 38.2194 46.387 38.7772 46.8194 39.029L49.5568 40.6228C49.6993 40.7058 49.8547 40.7451 50.0082 40.7451C50.3207 40.7451 50.6246 40.5816 50.7921 40.2891C51.0417 39.853 50.8935 39.2952 50.4611 39.0434Z" fill="url(#paint4_linear)"/>
<path d="M24.9271 16.9509C25.0946 17.2433 25.3986 17.4069 25.7111 17.4069C25.8645 17.4069 26.02 17.3675 26.1624 17.2846C26.5948 17.0328 26.743 16.4751 26.4933 16.039L24.913 13.2785C24.6633 12.8424 24.1102 12.6932 23.6778 12.9447C23.2454 13.1965 23.0972 13.7542 23.3469 14.1904L24.9271 16.9509Z" fill="url(#paint5_linear)"/>
<path d="M33.6025 15.2743C34.1018 15.2743 34.5067 14.866 34.5067 14.3624V11.1748C34.5067 10.6712 34.1018 10.2629 33.6025 10.2629C33.1031 10.2629 32.6982 10.6712 32.6982 11.1748V14.3624C32.6982 14.8661 33.103 15.2743 33.6025 15.2743Z" fill="url(#paint6_linear)"/>
<path d="M41.0421 17.2848C41.1845 17.3677 41.3399 17.4071 41.4934 17.4071C41.806 17.4071 42.1099 17.2435 42.2774 16.951L43.8578 14.1905C44.1074 13.7544 43.9593 13.1967 43.5268 12.9449C43.0944 12.693 42.5413 12.8425 42.2916 13.2786L40.7113 16.0391C40.4614 16.4751 40.6096 17.033 41.0421 17.2848Z" fill="url(#paint7_linear)"/>
<path d="M47.2733 23.2333C47.4267 23.2333 47.5822 23.1939 47.7246 23.111L50.4621 21.5172C50.8945 21.2654 51.0427 20.7076 50.793 20.2715C50.5433 19.8353 49.9902 19.6862 49.5578 19.9378L46.8204 21.5316C46.3879 21.7834 46.2398 22.3412 46.4894 22.7773C46.6568 23.0698 46.9608 23.2333 47.2733 23.2333Z" fill="url(#paint8_linear)"/>
<path d="M19.4806 37.4495L16.7433 39.0434C16.3107 39.2952 16.1626 39.8529 16.4123 40.289C16.5798 40.5816 16.8838 40.7451 17.1963 40.7451C17.3497 40.7451 17.5052 40.7056 17.6476 40.6228L20.3849 39.0289C20.8174 38.7771 20.9656 38.2194 20.7159 37.7833C20.466 37.347 19.9129 37.1979 19.4806 37.4495Z" fill="url(#paint9_linear)"/>
</g>
<defs>
<filter id="filter0_d" x="0.512041" y="0.805162" width="66.1796" height="71.9055" filterUnits="userSpaceOnUse" color-interpolation-filters="sRGB">
<feFlood flood-opacity="0" result="BackgroundImageFix"/>
<feColorMatrix in="SourceAlpha" type="matrix" values="0 0 0 0 0 0 0 0 0 0 0 0 0 0 0 0 0 0 127 0"/>
<feOffset dy="3.78311"/>
<feGaussianBlur stdDeviation="6.62044"/>
<feColorMatrix type="matrix" values="0 0 0 0 0.996078 0 0 0 0 0.823529 0 0 0 0 0.188235 0 0 0 0.4 0"/>
<feBlend mode="normal" in2="BackgroundImageFix" result="effect1_dropShadow"/>
<feBlend mode="normal" in="SourceGraphic" in2="effect1_dropShadow" result="shape"/>
</filter>
<linearGradient id="paint0_linear" x1="45.9245" y1="10.2638" x2="9.05883" y2="24.8993" gradientUnits="userSpaceOnUse">
<stop stop-color="#FED230"/>
<stop offset="1" stop-color="#FE8730"/>
</linearGradient>
<linearGradient id="paint1_linear" x1="18.7223" y1="28.9976" x2="16.4245" y2="32.8047" gradientUnits="userSpaceOnUse">
<stop stop-color="#FED230"/>
<stop offset="1" stop-color="#FE8730"/>
</linearGradient>
<linearGradient id="paint2_linear" x1="53.4507" y1="28.9976" x2="51.1529" y2="32.8047" gradientUnits="userSpaceOnUse">
<stop stop-color="#FED230"/>
<stop offset="1" stop-color="#FE8730"/>
</linearGradient>
<linearGradient id="paint3_linear" x1="20.8371" y1="19.1201" x2="16.0777" y2="22.9695" gradientUnits="userSpaceOnUse">
<stop stop-color="#FED230"/>
<stop offset="1" stop-color="#FE8730"/>
</linearGradient>
<linearGradient id="paint4_linear" x1="50.9133" y1="36.6321" x2="46.154" y2="40.4815" gradientUnits="userSpaceOnUse">
<stop stop-color="#FED230"/>
<stop offset="1" stop-color="#FE8730"/>
</linearGradient>
<linearGradient id="paint5_linear" x1="26.6146" y1="11.8901" x2="21.7322" y2="14.0848" gradientUnits="userSpaceOnUse">
<stop stop-color="#FED230"/>
<stop offset="1" stop-color="#FE8730"/>
</linearGradient>
<linearGradient id="paint6_linear" x1="34.5067" y1="9.24368" x2="31.5188" y2="9.89932" gradientUnits="userSpaceOnUse">
<stop stop-color="#FED230"/>
<stop offset="1" stop-color="#FE8730"/>
</linearGradient>
<linearGradient id="paint7_linear" x1="43.979" y1="11.8901" x2="39.0964" y2="14.0849" gradientUnits="userSpaceOnUse">
<stop stop-color="#FED230"/>
<stop offset="1" stop-color="#FE8730"/>
</linearGradient>
<linearGradient id="paint8_linear" x1="50.9143" y1="19.1204" x2="46.155" y2="22.9698" gradientUnits="userSpaceOnUse">
<stop stop-color="#FED230"/>
<stop offset="1" stop-color="#FE8730"/>
</linearGradient>
<linearGradient id="paint9_linear" x1="20.8372" y1="36.6321" x2="16.0779" y2="40.4815" gradientUnits="userSpaceOnUse">
<stop stop-color="#FED230"/>
<stop offset="1" stop-color="#FE8730"/>
</linearGradient>
</defs>
</svg>

<svg width="67" height="73" fill="none" xmlns="http://www.w3.org/2000/svg"><g filter="url(#filter0_d)"><path d="M33.603 17.94l-.175.002c-6.72.094-12.168 5.686-12.147 12.465a12.38 12.38 0 001.323 5.565c2.092 4.166 3.066 7.548 3.066 10.642v.234c0 .091.014.18.039.263v.003l.003.009 1.244 4.141a.905.905 0 00.866.648h1.156l.925 3.124a.905.905 0 00.867.65h5.666c.4 0 .752-.264.867-.65l.925-3.124h1.156c.398 0 .75-.263.865-.648l1.245-4.142.002-.008.001-.002v-.001a.916.916 0 00.039-.263v-.286c0-3.708 1.517-7.37 3.157-10.774a12.395 12.395 0 001.232-5.421c0-6.852-5.528-12.426-12.322-12.426zm2.16 35.923h-4.32l-.578-1.951h5.475l-.578 1.95zm2.95-3.775h-10.22l-.7-2.328h11.62l-.7 2.328zm-8.102-11.964l-.728-5.192.848.788a.902.902 0 001.283-.06l1.588-1.77 1.59 1.77a.902.902 0 001.282.06l.849-.788-.729 5.192h-5.983zm5.925 1.824v5.988H30.67v-5.988h5.867zm6.53-4.956c-1.645 3.415-3.174 7.095-3.326 10.944h-1.395l-.027-7.117 1.15-8.16a.91.91 0 00-.769-1.03.896.896 0 00-.739.232l-2.04 1.894-1.647-1.835a.901.901 0 00-1.341 0l-1.647 1.835-2.04-1.894a.899.899 0 00-1.278.053.915.915 0 00-.23.746l1.15 8.16-.027 7.116h-1.396c-.129-3.2-1.17-6.65-3.247-10.788a10.56 10.56 0 01-1.127-4.747c-.018-5.784 4.63-10.555 10.363-10.635 5.867-.08 10.663 4.704 10.663 10.6a10.57 10.57 0 01-1.05 4.626z" fill="url(#paint0_linear)"/><path d="M18.722 30.28a.908.908 0 00-.904-.912h-3.16c-.5 0-.905.409-.905.912 0 .504.405.912.904.912h3.161c.5 0 .904-.408.904-.912z" fill="url(#paint1_linear)"/><path d="M52.547 29.369h-3.161c-.5 0-.905.408-.905.911 0 .504.405.912.905.912h3.16c.5 0 .905-.408.905-.912a.908.908 0 00-.904-.912z" fill="url(#paint2_linear)"/><path d="M16.743 21.517l2.738 1.594a.902.902 0 001.235-.334.916.916 0 00-.331-1.245l-2.738-1.594a.9.9 0 00-1.235.333.916.916 0 00.331 1.246z" fill="url(#paint3_linear)"/><path d="M50.461 39.043l-2.737-1.593a.9.9 0 00-1.235.333.916.916 0 00.33 1.246l2.738 1.594a.902.902 0 001.235-.334.916.916 0 00-.33-1.246z" fill="url(#paint4_linear)"/><path d="M24.927 16.95a.903.903 0 001.235.335.916.916 0 00.331-1.246l-1.58-2.76a.9.9 0 00-1.235-.334.916.916 0 00-.331 1.245l1.58 2.76z" fill="url(#paint5_linear)"/><path d="M33.602 15.274c.5 0 .905-.408.905-.912v-3.187a.908.908 0 00-.904-.912c-.5 0-.905.408-.905.912v3.187c0 .504.405.912.904.912z" fill="url(#paint6_linear)"/><path d="M41.042 17.285a.903.903 0 001.235-.334l1.58-2.76a.916.916 0 00-.33-1.246.9.9 0 00-1.235.334l-1.58 2.76a.916.916 0 00.33 1.246z" fill="url(#paint7_linear)"/><path d="M47.273 23.233c.154 0 .31-.04.452-.122l2.737-1.594a.916.916 0 00.331-1.245.9.9 0 00-1.235-.334l-2.738 1.594a.916.916 0 00-.33 1.245.902.902 0 00.783.456z" fill="url(#paint8_linear)"/><path d="M19.48 37.45l-2.737 1.593a.916.916 0 00-.33 1.246.902.902 0 001.235.334l2.737-1.594a.916.916 0 00.33-1.246.9.9 0 00-1.234-.334z" fill="url(#paint9_linear)"/></g><defs><linearGradient id="paint0_linear" x1="45.925" y1="10.264" x2="9.059" y2="24.899" gradientUnits="userSpaceOnUse"><stop stop-color="#FED230"/><stop offset="1" stop-color="#FE8730"/></linearGradient><linearGradient id="paint1_linear" x1="18.722" y1="28.998" x2="16.424" y2="32.805" gradientUnits="userSpaceOnUse"><stop stop-color="#FED230"/><stop offset="1" stop-color="#FE8730"/></linearGradient><linearGradient id="paint2_linear" x1="53.451" y1="28.998" x2="51.153" y2="32.805" gradientUnits="userSpaceOnUse"><stop stop-color="#FED230"/><stop offset="1" stop-color="#FE8730"/></linearGradient><linearGradient id="paint3_linear" x1="20.837" y1="19.12" x2="16.078" y2="22.97" gradientUnits="userSpaceOnUse"><stop stop-color="#FED230"/><stop offset="1" stop-color="#FE8730"/></linearGradient><linearGradient id="paint4_linear" x1="50.913" y1="36.632" x2="46.154" y2="40.481" gradientUnits="userSpaceOnUse"><stop stop-color="#FED230"/><stop offset="1" stop-color="#FE8730"/></linearGradient><linearGradient id="paint5_linear" x1="26.615" y1="11.89" x2="21.732" y2="14.085" gradientUnits="userSpaceOnUse"><stop stop-color="#FED230"/><stop offset="1" stop-color="#FE8730"/></linearGradient><linearGradient id="paint6_linear" x1="34.507" y1="9.244" x2="31.519" y2="9.899" gradientUnits="userSpaceOnUse"><stop stop-color="#FED230"/><stop offset="1" stop-color="#FE8730"/></linearGradient><linearGradient id="paint7_linear" x1="43.979" y1="11.89" x2="39.096" y2="14.085" gradientUnits="userSpaceOnUse"><stop stop-color="#FED230"/><stop offset="1" stop-color="#FE8730"/></linearGradient><linearGradient id="paint8_linear" x1="50.914" y1="19.12" x2="46.155" y2="22.97" gradientUnits="userSpaceOnUse"><stop stop-color="#FED230"/><stop offset="1" stop-color="#FE8730"/></linearGradient><linearGradient id="paint9_linear" x1="20.837" y1="36.632" x2="16.078" y2="40.481" gradientUnits="userSpaceOnUse"><stop stop-color="#FED230"/><stop offset="1" stop-color="#FE8730"/></linearGradient><filter id="filter0_d" x=".512" y=".805" width="66.18" height="71.906" filterUnits="userSpaceOnUse" color-interpolation-filters="sRGB"><feFlood flood-opacity="0" result="BackgroundImageFix"/><feColorMatrix in="SourceAlpha" values="0 0 0 0 0 0 0 0 0 0 0 0 0 0 0 0 0 0 127 0"/><feOffset dy="3.783"/><feGaussianBlur stdDeviation="6.62"/><feColorMatrix values="0 0 0 0 0.996078 0 0 0 0 0.823529 0 0 0 0 0.188235 0 0 0 0.4 0"/><feBlend in2="BackgroundImageFix" result="effect1_dropShadow"/><feBlend in="SourceGraphic" in2="effect1_dropShadow" result="shape"/></filter></defs></svg>
